X:1
T:Welton, LM
T:Welton, LM
T:Henri Abraham César Malan, 1830
T:Public Domain Courtesy of the Cyber Hymnal™
C:Henri Abraham César Malan, 1830
Z:Public Domain
Z:Courtesy of the Cyber Hymnal™
%%score ( 1 2 ) ( 3 4 )
L:1/8
Q:1/4=160
M:4/4
K:Bb
V:1 treble 
V:2 treble 
V:3 bass 
V:4 bass 
V:1
 [DF]4 [DF]2 [DF]2 | [DB]6 [Fd]2 | [Fc]4 [Fc]4 | [Fd]8 | [EG]4 [GB]2 [EG]2 | F4 (B2 d2) | %6
 ([Fc]2 [GB]2) ([FA]2 [=EG]2) | F8 | [DF]4 [DF]2 [DF]2 | [DB]6 [Fd]2 | [Fc]4 [Fc]4 | [Fd]8 | %12
 [EG]4 [GB]2 [EG]2 | F4 [DB]4 | [Fd]4 [Ec]4 | [DB]8 |] %16
V:2
 x8 | x8 | x8 | x8 | x8 | F4 F4 | x8 | F8 | x8 | x8 | x8 | x8 | x8 | F4 x4 | x8 | x8 |] %16
V:3
 [B,,B,]4 [B,,B,]2 [B,,B,]2 | [B,,B,]6 [B,,B,]2 | [F,B,]4 [F,A,]4 | [B,,B,]8 | %4
 [E,B,]4 [E,B,]2 [E,B,]2 | [D,B,]4 (D2 B,2) | (A,2 C2) (C2 B,2) | [F,A,]8 | %8
 [B,,B,]4 [B,,B,]2 [B,,B,]2 | [B,,B,]6 [B,,B,]2 | [F,B,]4 [F,A,]4 | [B,,B,]8 | %12
 [E,B,]4 [E,B,]2 [E,B,]2 | [D,B,]4 [G,B,]4 | [F,B,]4 [F,A,]4 | [B,,B,]8 |] %16
V:4
 x8 | x8 | x8 | x8 | x8 | x4 B,,4 | C,4 C,4 | x8 | x8 | x8 | x8 | x8 | x8 | x8 | x8 | x8 |] %16

